X:124
T:Lord Mac Donald’s Reel TS.124
M:C|
L:1/8
Q:1/2=90
S:Thomas Sands’ MS,1810,Lincolnshire
R:reel
O:England;Lincolnshire
Z:vmp.Ruairidh Greig, 2011
K:G
B|d2>e2 dBgB|dBgB a(AAB)|d^cde dBgB|(A/B/c) BABG G:|
|:B|DBGB AGBG|DBGB AGAB|DGBG AGBG|dedc BGGG|
DGBG AGBG|DGBG A>GEc|BAGF GFED|EFGA BGG:|
|:B|d3e dBgB|dBgB a(AAB)|d^cde dBgB|”beaming changed from ms”A/B/cB ABGG:|
|:g|(dg)bg agbg|(dg)bg ageg|dgbg agbg|dedc BGGg|
dgbg agbg|dgbg (ag)ea|(ba).g.f (gf).e.d|efga bgg:|]

